X:1
T:Title
%%score { ( 1 4 ) | ( 2 3 ) }
L:1/8
Q:1/4=100
M:6/8
K:G
V:1 treble nm="Grand Piano"
V:4 treble 
V:2 bass 
V:3 bass 
V:1
 B2 G B2 G | B2 A A3 | AAA AGF | G2 A B3 | B2 G B2 G | B2 A A3 | AAA AGF | G6 | BAB [Ac]Bc | %9
w: E.~O.~Excell * * *|||||||||
 [Bd]3 [GB]3 | [Ac]BB [Bd]2 c | [Ac]3[K:bass][K:treble] z3 | c3 .c3 | B3 z3 | AAA AGF | G2 A B3 | %16
w: |||||||
 c3 .c3 | B3 z3 | BAG AEF | G6 |] %20
w: ||||
V:2
 [G,D]2 [G,B,] [G,D]2 [G,B,] | [D,G,D]2 [D,F,C] [D,F,C]3 | %2
 [D,F,C][D,F,C][D,F,C] [D,F,C][D,G,B,][D,A,C] | G,2- [G,-C] [G,D]3 | [G,D]2 [G,B,] [G,D]2 [G,B,] | %5
 [D,G,D]2 [D,F,C] [D,F,C]3 | [D,F,C][D,F,C][D,F,C] [D,F,C][D,G,B,][D,A,C] | [G,B,]6 | GFG z ^GA | %9
 G,,3 G,3 | z[K:treble] ^GG[K:bass] z2 A | .[D,G,]3 [G,G]3 | %12
 [D,A,][D,G,][D,F,] [D,A,][D,G,][D,F,D] | [G,,G,][G,,G,][G,,G,] [G,,G,]3 | %14
 [D,F,C][D,F,C][D,F,C] [D,F,C][D,G,B,][D,A,C] | B,2 C D3 | [D,A,][D,G,][D,F,] [D,A,][D,G,][D,F,D] | %17
 [G,,G,][G,,G,][G,,G,] [G,,G,]3 | [D,G,D][D,F,C][D,G,B,] [D,F,C][D,G,C][D,A,C] | [G,B,]6 |] %20
V:3
 x6 | x6 | x6 | .B,3 z3 | x6 | x6 | x6 | x6 | G,3 D,3 | x6 | D,3[K:treble][K:bass] D,3 | x6 | x6 | %13
 x6 | x6 | G,6 | x6 | x6 | x6 | x6 |] %20
V:4
 x6 | x6 | x6 | x6 | x6 | x6 | x6 | x6 | x6 | x6 | x6 | z[K:bass] E,F,[K:treble] B3 | FED FEc | %13
 DDD [B,G]3 | x6 | x6 | FED FEc | DDD [B,G]3 | x6 | x6 |] %20

